!!!OTL: Schönes Bl&uuml;melein (3-1), S. 13
!!!id: P0972
**kern
*clefG2
*k[b-]
*F:
{8a
8b-
=1
4.cc
8b-
4a
8g
8g
=2
4a
4g
4f}
=3
{8g
8g
=4
8a
8b-
8cc
8b-
4a
4g
=5
2f}
4r
=6
{8g
8g
=7
8a
8b-
8cc
8b-
4a
4g
=8
2f}
4r
=9
{4cc
=10
4.cc
8b-
4a
4g
=11
2f}
4r
=12
{8cc
8cc
=13
4dd
8cc
8cc
8b-
8a
8b-
8dd
=14
2cc}
4r
=15
{8a
8b-
=16
4.cc
8b-
4a
8g
8g
=17
4a
4g
4f}
=18
{8g
8g
=19
8a
8b-
8cc
8b-
4a
4g
=20
2f}
4r
=21
{8g
8g
=22
8a
8b-
8cc
8b-
4a
4g
=23
2f}
4r
==
*-
!!!minrhy: 8
!!!meters: 4/4 ]  ZZ[8
!!!cut: Schönes Bl&uuml;melein (3-1), S. 13
!!!reg: Lothringen
!!!trd: PINCK, Louis: Verklingende Weisen, Bd3, Metz 1933
!!!rhy1: XX  X_.XX_XX  X_X_X_
!!!rhy2: XX  XXXXX_X_  X__0_
!!!key: P0972  08  F 4/4 ]  ZZ[8
!!!mod: SECHSTONSKALA DUR ?]  AMBITUS[6
!!!kad: 11115111
!!!akz: 5331_331_331_531_645_5331_331_331_
!!!fot: 'a__b__b__aw_c__a__b__b__
!!!for: 'a__b__b__c__d__a__b__b__
!!!fok: '^d_^d_^d_\__V__^d_^d_^d_
!! PHRAS[AUFTAKTIG]
!!!fkt: yyy
!! LOTH VKL
!! PR[38] 2K[0] 2G[19] 3K[7] 3G[2] 4A[5] 4Ü[0] 5A[0] 6K[0] 6G[0]
!! 7K[0] 7G[0] 8A[0] MEHR[0] SI[33] ABS[42] SR[19] SP[14]
!! ST[23] 2k[2] 2g[19] 3k[5] 3g[0] 4d[0] 4ü[0] 5d[2] 6k[0] 6g[0]
!! 7k[0] 7g[0] 8d[0] mehr[0] si[29] dm[+4] sr[21] sp[7]
!! 1F[2] 2F[34] 3F[43] 4F[15] LF[0] 2P[2] 3P[4] 4P[0] TRI[0] DF[6] AB[47]
!! TF[0] U3K[0] U3[0] U4[0] U4Ü[0] U5[5] U6K[0] U6[0] U7K[0] U7[0]
!! N1[19] N2K[0] N2[16] N3K[0] N3[21] N4[5] N4Ü[0] N5[23] N6K[0] N6[12]
!!!n7k: 0] N7[0] O1[0] O2K[0] O2[0] O3K[0] O3[0] HÖ[0
!!!RNB: symbol: &uuml;  = u umlaut (UTF-8: Ã¼)
